my_site/img/footer/phone.svg

<svg width="24" height="25" viewBox="0 0 24 25" fill="none" xmlns="http://www.w3.org/2000/svg">
<g clip-path="url(#clip0)">
<path d="M18.8478 12.9767C18.7365 12.8652 18.6043 12.7767 18.4587 12.7163C18.3131 12.656 18.157 12.6249 17.9995 12.6249C17.8419 12.6249 17.6858 12.656 17.5402 12.7163C17.3946 12.7767 17.2624 12.8652 17.1511 12.9767L15.2383 14.8895C14.3515 14.6255 12.6967 14.0255 11.6479 12.9767C10.5991 11.9279 9.99913 10.2731 9.73513 9.38635L11.6479 7.47357C11.7594 7.36223 11.8479 7.22998 11.9083 7.08441C11.9687 6.93883 11.9998 6.78278 11.9998 6.62518C11.9998 6.46758 11.9687 6.31153 11.9083 6.16595C11.8479 6.02038 11.7594 5.88813 11.6479 5.77679L6.84796 0.976838C6.73662 0.865304 6.60437 0.776819 6.4588 0.716447C6.31322 0.656075 6.15717 0.625 5.99957 0.625C5.84197 0.625 5.68592 0.656075 5.54034 0.716447C5.39477 0.776819 5.26252 0.865304 5.15118 0.976838L1.89681 4.23121C1.44082 4.6872 1.18402 5.31359 1.19362 5.95319C1.22122 7.66197 1.67361 13.5971 6.35117 18.2747C11.0287 22.9522 16.9639 23.4034 18.6738 23.4322H18.7074C19.341 23.4322 19.9398 23.1826 20.3934 22.729L23.6478 19.4747C23.7593 19.3633 23.8478 19.2311 23.9082 19.0855C23.9686 18.9399 23.9996 18.7839 23.9996 18.6263C23.9996 18.4687 23.9686 18.3126 23.9082 18.167C23.8478 18.0215 23.7593 17.8892 23.6478 17.7779L18.8478 12.9767ZM18.6954 21.031C17.1979 21.0058 12.0739 20.6038 8.04795 16.5767C4.00879 12.5375 3.61759 7.39557 3.5936 5.92799L5.99957 3.52201L9.10274 6.62518L7.55116 8.17677C7.41011 8.3177 7.30641 8.49157 7.24942 8.68264C7.19243 8.87372 7.18396 9.07598 7.22476 9.27115C7.25356 9.40915 7.95795 12.6815 9.94993 14.6735C11.9419 16.6655 15.2143 17.3699 15.3523 17.3987C15.5473 17.4406 15.7498 17.4328 15.941 17.376C16.1323 17.3192 16.3062 17.2151 16.4467 17.0735L17.9995 15.5219L21.1026 18.6251L18.6954 21.031Z" fill="#8EC2F2"/>
</g>
<defs>
<clipPath id="clip0">
<rect width="24" height="24" fill="white" transform="translate(0 0.625)"/>
</clipPath>
</defs>
</svg>

<svg width="24" height="25" fill="none" xmlns="http://www.w3.org/2000/svg"><g clip-path="url(#clip0)"><path d="M18.848 12.977a1.199 1.199 0 00-1.697 0l-1.913 1.912c-.886-.263-2.541-.864-3.59-1.912-1.049-1.05-1.649-2.704-1.913-3.59l1.913-1.913a1.2 1.2 0 000-1.697l-4.8-4.8a1.199 1.199 0 00-1.697 0L1.897 4.23a2.398 2.398 0 00-.703 1.722c.027 1.709.48 7.644 5.157 12.322 4.678 4.677 10.613 5.128 12.323 5.157h.033c.634 0 1.233-.25 1.686-.703l3.255-3.254a1.2 1.2 0 000-1.697l-4.8-4.801zm-.153 8.054c-1.497-.025-6.621-.427-10.647-4.454-4.04-4.04-4.43-9.181-4.454-10.649L6 3.522l3.103 3.103L7.55 8.177a1.2 1.2 0 00-.326 1.094c.029.138.733 3.41 2.725 5.402 1.992 1.993 5.264 2.697 5.402 2.726a1.19 1.19 0 001.095-.326L18 15.522l3.103 3.103-2.408 2.406z" fill="#8EC2F2"/></g><defs><clipPath id="clip0"><path fill="#fff" transform="translate(0 .625)" d="M0 0h24v24H0z"/></clipPath></defs></svg>
